Obsidian-SemiLight/actions/24s/im-user-away.svg

<svg viewBox="0 0 24 24" xmlns="http://www.w3.org/2000/svg"><path d="m12 4a3.99999 4.00003 0 0 0 -4 4 3.99999 4.00003 0 0 0 4 4 3.99999 4.00003 0 0 0 4-4 3.99999 4.00003 0 0 0 -4-4zm0 1a3 3.00003 0 0 1 3 3 3 3.00003 0 0 1 -3 3 3 3.00003 0 0 1 -3-3 3 3.00003 0 0 1 3-3zm8 7-8 4 2 1 1 3 1-2 2 1zm-8 1a7.99995 8.00003 0 0 0 -7.9277344 7h1.0078125a6.99996 7.00003 0 0 1 6.9199219-6 6.99996 7.00003 0 0 1 1 .080078v-1.009766a7.99995 8.00003 0 0 0 -1-.070312z" fill="#fdbc4b"/></svg>

<?xml version="1.0" encoding="UTF-8" standalone="no"?>
<svg
   xmlns:dc="http://purl.org/dc/elements/1.1/"
   xmlns:cc="http://creativecommons.org/ns#"
   xmlns:rdf="http://www.w3.org/1999/02/22-rdf-syntax-ns#"
   xmlns:svg="http://www.w3.org/2000/svg"
   xmlns="http://www.w3.org/2000/svg"
   xmlns:sodipodi="http://sodipodi.sourceforge.net/DTD/sodipodi-0.dtd"
   xmlns:inkscape="http://www.inkscape.org/namespaces/inkscape"
   viewBox="0 0 24 24"
   id="svg2"
   version="1.1"
   inkscape:version="0.91 r13725"
   sodipodi:docname="im-user-away.svg">
  <metadata
     id="metadata18">
    <rdf:RDF>
      <cc:Work
         rdf:about="">
        <dc:format>image/svg+xml</dc:format>
        <dc:type
           rdf:resource="http://purl.org/dc/dcmitype/StillImage" />
      </cc:Work>
    </rdf:RDF>
  </metadata>
  <defs
     id="defs16" />
  <sodipodi:namedview
     pagecolor="#ffffff"
     bordercolor="#666666"
     borderopacity="1"
     objecttolerance="10"
     gridtolerance="10"
     guidetolerance="10"
     inkscape:pageopacity="0"
     inkscape:pageshadow="2"
     inkscape:window-width="828"
     inkscape:window-height="480"
     id="namedview14"
     showgrid="false"
     inkscape:zoom="9.8333333"
     inkscape:cx="12"
     inkscape:cy="12"
     inkscape:window-x="0"
     inkscape:window-y="0"
     inkscape:window-maximized="0"
     inkscape:current-layer="svg2" />
  <path
     style="fill:#fdbc4b"
     d="M 12 4 A 3.99999 4.00003 0 0 0 8 8 A 3.99999 4.00003 0 0 0 12 12 A 3.99999 4.00003 0 0 0 16 8 A 3.99999 4.00003 0 0 0 12 4 z M 12 5 A 3 3.00003 0 0 1 15 8 A 3 3.00003 0 0 1 12 11 A 3 3.00003 0 0 1 9 8 A 3 3.00003 0 0 1 12 5 z M 20 12 L 12 16 L 14 17 L 15 20 L 16 18 L 18 19 L 20 12 z M 12 13 A 7.99995 8.00003 0 0 0 4.0722656 20 L 5.0800781 20 A 6.99996 7.00003 0 0 1 12 14 A 6.99996 7.00003 0 0 1 13 14.080078 L 13 13.070312 A 7.99995 8.00003 0 0 0 12 13 z "
     id="path8" />
</svg>
